lib/images/blog_mv.svg

<svg width="393" height="36" viewBox="0 0 393 36" fill="none" xmlns="http://www.w3.org/2000/svg">
<path d="M0.27417 35H7.66617V24.728L11.5542 20.696L21.9702 35H30.8502L16.5462 15.656L30.2262 1.4H21.2982L7.66617 16.088V1.4H0.27417V35Z" fill="#FF725C"/>
<path d="M36.3192 35H43.8552L46.9272 27.464H61.1352L64.2072 35H71.9352L57.5352 1.16H50.7192L36.3192 35ZM49.5672 20.936L54.0312 10.04L58.4952 20.936H49.5672Z" fill="#FF725C"/>
<path d="M95.9408 35.576C102.085 35.576 106.837 33.176 110.293 30.248V15.656H95.7008V22.04H103.141V26.84C101.269 28.184 98.8688 28.856 96.1808 28.856C90.2288 28.856 86.0048 24.344 86.0048 18.2V18.104C86.0048 12.392 90.2768 7.64 95.6528 7.64C99.5408 7.64 101.845 8.88801 104.437 11.048L109.093 5.432C105.589 2.456 101.941 0.824005 95.8928 0.824005C85.7168 0.824005 78.2768 8.648 78.2768 18.2V18.296C78.2768 28.232 85.4768 35.576 95.9408 35.576Z" fill="#FF725C"/>
<path d="M119.325 35H126.861L129.933 27.464H144.141L147.213 35H154.941L140.541 1.16H133.725L119.325 35ZM132.573 20.936L137.037 10.04L141.501 20.936H132.573Z" fill="#FF725C"/>
<path d="M164.927 35H172.319V24.248H178.127L185.327 35H193.967L185.759 23C190.031 21.416 192.959 18.008 192.959 12.584V12.488C192.959 9.32 191.951 6.68 190.079 4.80801C187.871 2.60001 184.559 1.4 180.287 1.4H164.927V35ZM172.319 17.72V8.072H179.663C183.263 8.072 185.471 9.704 185.471 12.872V12.968C185.471 15.8 183.407 17.72 179.807 17.72H172.319Z" fill="#FF725C"/>
<path d="M204.751 35H212.143V1.4H204.751V35Z" fill="#FF725C"/>
<path d="M244.53 35H260.514C268.098 35 273.09 31.928 273.09 25.784V25.688C273.09 21.176 270.69 18.92 266.802 17.432C269.202 16.088 271.218 13.976 271.218 10.184V10.088C271.218 7.784 270.45 5.91201 268.914 4.37601C266.994 2.456 263.97 1.4 260.13 1.4H244.53V35ZM263.874 11.432C263.874 13.928 261.81 14.984 258.546 14.984H251.73V7.88001H259.026C262.146 7.88001 263.874 9.128 263.874 11.336V11.432ZM265.746 24.776V24.872C265.746 27.368 263.778 28.52 260.514 28.52H251.73V21.128H260.274C264.066 21.128 265.746 22.52 265.746 24.776Z" fill="#FF725C"/>
<path d="M283.971 35H308.115V28.28H291.363V1.4H283.971V35Z" fill="#FF725C"/>
<path d="M332.888 35.576C343.256 35.576 350.792 27.752 350.792 18.2V18.104C350.792 8.55201 343.352 0.824005 332.984 0.824005C322.616 0.824005 315.08 8.648 315.08 18.2V18.296C315.08 27.848 322.52 35.576 332.888 35.576ZM332.984 28.76C327.032 28.76 322.808 23.96 322.808 18.2V18.104C322.808 12.344 326.936 7.64 332.888 7.64C338.84 7.64 343.064 12.44 343.064 18.2V18.296C343.064 24.056 338.936 28.76 332.984 28.76Z" fill="#FF725C"/>
<path d="M378.325 35.576C384.469 35.576 389.221 33.176 392.677 30.248V15.656H378.085V22.04H385.525V26.84C383.653 28.184 381.253 28.856 378.565 28.856C372.613 28.856 368.389 24.344 368.389 18.2V18.104C368.389 12.392 372.661 7.64 378.037 7.64C381.925 7.64 384.229 8.88801 386.821 11.048L391.477 5.432C387.973 2.456 384.325 0.824005 378.277 0.824005C368.101 0.824005 360.661 8.648 360.661 18.2V18.296C360.661 28.232 367.861 35.576 378.325 35.576Z" fill="#FF725C"/>
</svg>

<svg width="393" height="36" fill="none" xmlns="http://www.w3.org/2000/svg"><path d="M.274 35h7.392V24.728l3.888-4.032L21.97 35h8.88L16.546 15.656 30.226 1.4h-8.928L7.666 16.088V1.4H.274V35zm36.046 0h7.535l3.072-7.536h14.208L64.207 35h7.728l-14.4-33.84H50.72L36.32 35zm13.247-14.064l4.464-10.896 4.464 10.896h-8.928zm46.373 14.64c6.145 0 10.897-2.4 14.353-5.328V15.656H95.701v6.384h7.44v4.8c-1.872 1.344-4.272 2.016-6.96 2.016-5.952 0-10.176-4.512-10.176-10.656v-.096c0-5.712 4.272-10.464 9.648-10.464 3.888 0 6.192 1.248 8.784 3.408l4.656-5.616c-3.504-2.976-7.152-4.608-13.2-4.608-10.176 0-17.616 7.824-17.616 17.376v.096c0 9.936 7.2 17.28 17.664 17.28zM119.325 35h7.536l3.072-7.536h14.208L147.213 35h7.728l-14.4-33.84h-6.816L119.325 35zm13.248-14.064l4.464-10.896 4.464 10.896h-8.928zM164.927 35h7.392V24.248h5.808l7.2 10.752h8.64l-8.208-12c4.272-1.584 7.2-4.992 7.2-10.416v-.096c0-3.168-1.008-5.808-2.88-7.68-2.208-2.208-5.52-3.408-9.792-3.408h-15.36V35zm7.392-17.28V8.072h7.344c3.6 0 5.808 1.632 5.808 4.8v.096c0 2.832-2.064 4.752-5.664 4.752h-7.488zM204.751 35h7.392V1.4h-7.392V35zm39.779 0h15.984c7.584 0 12.576-3.072 12.576-9.216v-.096c0-4.512-2.4-6.768-6.288-8.256 2.4-1.344 4.416-3.456 4.416-7.248v-.096c0-2.304-.768-4.176-2.304-5.712-1.92-1.92-4.944-2.976-8.784-2.976h-15.6V35zm19.344-23.568c0 2.496-2.064 3.552-5.328 3.552h-6.816V7.88h7.296c3.12 0 4.848 1.248 4.848 3.456v.096zm1.872 13.344v.096c0 2.496-1.968 3.648-5.232 3.648h-8.784v-7.392h8.544c3.792 0 5.472 1.392 5.472 3.648zM283.971 35h24.144v-6.72h-16.752V1.4h-7.392V35zm48.917.576c10.368 0 17.904-7.824 17.904-17.376v-.096c0-9.552-7.44-17.28-17.808-17.28-10.368 0-17.904 7.824-17.904 17.376v.096c0 9.552 7.44 17.28 17.808 17.28zm.096-6.816c-5.952 0-10.176-4.8-10.176-10.56v-.096c0-5.76 4.128-10.464 10.08-10.464s10.176 4.8 10.176 10.56v.096c0 5.76-4.128 10.464-10.08 10.464zm45.341 6.816c6.144 0 10.896-2.4 14.352-5.328V15.656h-14.592v6.384h7.44v4.8c-1.872 1.344-4.272 2.016-6.96 2.016-5.952 0-10.176-4.512-10.176-10.656v-.096c0-5.712 4.272-10.464 9.648-10.464 3.888 0 6.192 1.248 8.784 3.408l4.656-5.616c-3.504-2.976-7.152-4.608-13.2-4.608-10.176 0-17.616 7.824-17.616 17.376v.096c0 9.936 7.2 17.28 17.664 17.28z" fill="#FF725C"/></svg>
